N0000 (Filename: Suporte_mancal_[para corte].nc)
N0001 (Post processor: Tecnopampa THC 2009.post)
N0002 (Date: 03/10/2018)
N0003 G21 (Units: Metric)
N0004G90 G40
N0005 F1
N0006 S500
N0007 (Part: Suporte_mancal_[para corte])
N0008 (Process: Plasma,  0, Plasma - Aço Carbono 0,5 a 0,8mm - Bico Finecut 45A)
N0009 M06 T1  (Plasma - Aço Carbono 0,5 a 0,8mm - Bico Finecut 45A)
N0010 G00 Z0.0000
N0011 X87.8924 Y51.9124
N0012 M03
N0013 G02 X91.0924 Y48.7124 I0.0000 J-3.2000 F1800.0
N0014 X91.0924 Y48.7124 I-8.0000 J0.0000
N0015 X87.8924 Y45.5124 I-3.2000 J0.0000
N0016 M05
N0017 M09
N0018 G00 X214.8924 Y51.9124
N0019 M03
N0020 G02 X218.0924 Y48.7124 I0.0000 J-3.2000
N0021 X218.0924 Y48.7124 I-15.0000 J0.0000
N0022 X214.8924 Y45.5124 I-3.2000 J0.0000
N0023 M05
N0024 M09
N0025 G00 X327.8924 Y51.9124
N0026 M03
N0027 G02 X331.0924 Y48.7124 I0.0000 J-3.2000
N0028 X331.0924 Y48.7124 I-8.0000 J0.0000
N0029 X327.8924 Y45.5124 I-3.2000 J0.0000
N0030 M05
N0031 M09
N0032 G00 X29.5471 Y9.5124
N0033 M03
N0034 G02 X32.7471 Y12.7124 I3.2000 J0.0000
N0035 G01 X32.9151 Y7.9647 F1801
N0036 G03 X32.9346 Y7.8000 I0.9994 J0.0353 F1800.0
N0037 X43.7124 Y-1.0000 I10.7778 J2.2000
N0038 G01 X362.4724 Y-1.0000 F1801
N0039 G03 X373.2501 Y7.8000 I0.0000 J11.0000 F1800.0
N0040 X373.2694 Y7.9572 I-0.9798 J0.2000
N0041 G01 X373.4715 Y12.6696 F1801
N0042 G03 X373.4724 Y12.7124 I-0.9991 J0.0428 F1800.0
N0043 G01 X396.1848 Y12.7124 F1801
N0044 G03 X407.1848 Y23.7124 I0.0000 J11.0000 F1800.0
N0045 G01 X407.1848 Y73.7124 F1801
N0046 G03 X396.1848 Y84.7124 I-11.0000 J0.0000 F1800.0
N0047 G01 X373.4376 F1801
N0048 X373.2697 Y89.4601
N0049 G03 X373.2501 Y89.6248 I-0.9994 J-0.0353 F1800.0
N0050 X362.4724 Y98.4248 I-10.7778 J-2.2000
N0051 G01 X43.7124 Y98.4248 F1801
N0052 G03 X32.9346 Y89.6248 I0.0000 J-11.0000 F1800.0
N0053 X32.9151 Y89.4601 I0.9798 J-0.2000
N0054 G01 X32.7471 Y84.7124 F1801
N0055 X10.0000
N0056 G03 X-1.0000 Y73.7124 I0.0000 J-11.0000 F1800.0
N0057 G01 Y23.7124 F1801
N0058 G03 X10.0000 Y12.7124 I11.0000 J0.0000 F1800.0
N0059 G01 X32.7471 F1801
N0060 G02 X29.6622 Y9.4013 I-3.1980 J-0.1131 F1800.0
N0061 M05 M30
