N0000 (Filename: Base_mancal_corte.nc)
N0001 (Post processor: Tecnopampa THC 2009.post)
N0002 (Date: 09/10/2018)
N0003 G21 (Units: Metric)
N0004G90 G40
N0005 F1
N0006 S500
N0007 (Part: Base_mancal_corte)
N0008 (Process: Plasma,  0, Plasma - Aço Carbono 0,5 a 0,8mm - Bico Finecut 45A)
N0009 M06 T1  (Plasma - Aço Carbono 0,5 a 0,8mm - Bico Finecut 45A)
N0010 G00 Z0.0000
N0011 X139.0124 Y75.7000
N0012 M03
N0013 G02 X142.2124 Y72.5000 I0.0000 J-3.2000 F1800.0
N0014 X135.7124 Y66.0000 I-6.5000 J0.0000
N0015 G01 X35.7124 Y66.0000 F1801
N0016 G02 X35.7124 Y79.0000 I0.0000 J6.5000 F1800.0
N0017 G01 X135.7124 Y79.0000 F1801
N0018 G02 X142.2124 Y72.5000 I0.0000 J-6.5000 F1800.0
N0019 X139.0124 Y69.3000 I-3.2000 J0.0000
N0020 M05
N0021 M09
N0022 G00 X97.5124 Y25.7000
N0023 M03
N0024 G02 X100.7124 Y22.5000 I0.0000 J-3.2000
N0025 X100.7124 Y22.5000 I-15.0000 J0.0000
N0026 X97.5124 Y19.3000 I-3.2000 J0.0000
N0027 M05
N0028 M09
N0029 G00 X153.4991 Y-4.8116
N0030 M03
N0031 G02 X153.9088 Y-0.3047 I2.4583 J2.0486
N0032 G01 X159.0744 Y4.0000 F1801
N0033 X169.4248
N0034 G03 X172.4248 Y7.0000 I0.0000 J3.0000 F1800.0
N0035 G01 Y88.0000 F1801
N0036 G03 X169.4248 Y91.0000 I-3.0000 J0.0000 F1800.0
N0037 G01 X2.0000 Y91.0000 F1801
N0038 G03 X-1.0000 Y88.0000 I0.0000 J-3.0000 F1800.0
N0039 G01 X-1.0000 Y7.0000 F1801
N0040 G03 X2.0000 Y4.0000 I3.0000 J0.0000 F1800.0
N0041 G01 X12.3503 Y4.0000 F1801
N0042 X17.5159 Y-0.3047
N0043 G03 X19.4365 Y-1.0000 I1.9206 J2.3047 F1800.0
N0044 G01 X151.9883 Y-1.0000 F1801
N0045 G03 X153.9088 Y-0.3047 I0.0000 J3.0000 F1800.0
N0046 G02 X158.4157 Y-0.7144 I2.0486 J-2.4583
N0047 M05 M30
