N0000 (Filename: Carro Y_corte.nc)
N0001 (Post processor: Tecnopampa THC 2009.post)
N0002 (Date: 09/10/2018)
N0003 G21 (Units: Metric)
N0004G90 G40
N0005 F1
N0006 S500
N0007 (Part: Carro Y_corte)
N0008 (Process: Plasma,  0, Plasma - Aço Carbono 0,5 a 0,8mm - Bico Finecut 45A)
N0009 M06 T1  (Plasma - Aço Carbono 0,5 a 0,8mm - Bico Finecut 45A)
N0010 G00 Z0.0000
N0011 X33.3000 Y43.2000
N0012 M03
N0013 G02 X36.5000 Y40.0000 I0.0000 J-3.2000 F1800.0
N0014 X36.5000 Y40.0000 I-12.5000 J0.0000
N0015 X33.3000 Y36.8000 I-3.2000 J0.0000
N0016 M05
N0017 M09
N0018 G00 X76.9124 Y205.3000
N0019 M03
N0020 G02 X73.7124 Y208.5000 I0.0000 J3.2000
N0021 X82.7124 Y217.5000 I9.0000 J0.0000
N0022 G01 X93.7124 Y217.5000 F1801
N0023 G02 X102.7124 Y208.5000 I0.0000 J-9.0000 F1800.0
N0024 G01 X102.7124 Y40.0000 F1801
N0025 G02 X93.7124 Y31.0000 I-9.0000 J0.0000 F1800.0
N0026 G01 X82.7124 Y31.0000 F1801
N0027 G02 X73.7124 Y40.0000 I0.0000 J9.0000 F1800.0
N0028 G01 X73.7124 Y208.5000 F1801
N0029 G02 X76.9124 Y211.7000 I3.2000 J0.0000 F1800.0
N0030 M05
N0031 M09
N0032 G00 X156.9124 Y34.2000
N0033 M03
N0034 G02 X153.7124 Y31.0000 I-3.2000 J-0.0000
N0035 X144.7124 Y40.0000 I0.0000 J9.0000
N0036 G01 Y208.5000 F1801
N0037 G02 X153.7124 Y217.5000 I9.0000 J0.0000 F1800.0
N0038 G01 X164.7124 Y217.5000 F1801
N0039 G02 X173.7124 Y208.5000 I0.0000 J-9.0000 F1800.0
N0040 G01 X173.7124 Y40.0000 F1801
N0041 G02 X164.7124 Y31.0000 I-9.0000 J0.0000 F1800.0
N0042 G01 X153.7124 Y31.0000 F1801
N0043 G02 X150.5124 Y34.2000 I0.0000 J3.2000 F1800.0
N0044 M05
N0045 M09
N0046 G00 X232.7248 Y43.2000
N0047 M03
N0048 G02 X235.9248 Y40.0000 I0.0000 J-3.2000
N0049 X235.9248 Y40.0000 I-12.5000 J0.0000
N0050 X232.7248 Y36.8000 I-3.2000 J0.0000
N0051 M05
N0052 M09
N0053 G00 Y211.7000
N0054 M03
N0055 G02 X235.9248 Y208.5000 I0.0000 J-3.2000
N0056 X235.9248 Y208.5000 I-12.5000 J0.0000
N0057 X232.7248 Y205.3000 I-3.2000 J0.0000
N0058 M05
N0059 M09
N0060 G00 X33.3000 Y211.7000
N0061 M03
N0062 G02 X36.5000 Y208.5000 I0.0000 J-3.2000
N0063 X36.5000 Y208.5000 I-12.5000 J0.0000
N0064 X33.3000 Y205.3000 I-3.2000 J0.0000
N0065 M05
N0066 M09
N0067 G00 X15.2000 Y119.4500
N0068 M03
N0069 G02 X12.0000 Y116.2500 I-3.2000 J-0.0000
N0070 G01 X-0.0000 Y116.2500 F1801
N0071 G03 X-1.0000 Y115.2500 I0.0000 J-1.0000 F1800.0
N0072 G01 X-1.0000 Y5.0000 F1801
N0073 G03 X5.0000 Y-1.0000 I6.0000 J0.0000 F1800.0
N0074 G01 X242.4248 F1801
N0075 G03 X248.4248 Y5.0000 I0.0000 J6.0000 F1800.0
N0076 G01 X248.4248 Y115.2500 F1801
N0077 G03 X247.4248 Y116.2500 I-1.0000 J0.0000 F1800.0
N0078 G01 X235.4248 Y116.2500 F1801
N0079 G03 X234.6248 Y115.8500 I-0.0000 J-1.0000 F1800.0
N0080 G02 X234.6248 Y132.6500 I-11.2000 J8.4000
N0081 G03 X235.4248 Y132.2500 I0.8000 J0.6000
N0082 G01 X247.4248 Y132.2500 F1801
N0083 G03 X248.4248 Y133.2500 I-0.0000 J1.0000 F1800.0
N0084 G01 X248.4248 Y243.5000 F1801
N0085 G03 X242.4248 Y249.5000 I-6.0000 J0.0000 F1800.0
N0086 G01 X5.0000 Y249.5000 F1801
N0087 G03 X-1.0000 Y243.5000 I0.0000 J-6.0000 F1800.0
N0088 G01 X-1.0000 Y133.2500 F1801
N0089 G03 X-0.0000 Y132.2500 I1.0000 J0.0000 F1800.0
N0090 G01 X12.0000 Y132.2500 F1801
N0091 G03 X12.8000 Y132.6500 I0.0000 J1.0000 F1800.0
N0092 G02 X12.8000 Y115.8500 I11.2000 J-8.4000
N0093 G03 X12.0000 Y116.2500 I-0.8000 J-0.6000
N0094 G02 X8.8000 Y119.4500 I-0.0000 J3.2000
N0095 M05 M30
