N0000 (Filename: Chapa1_carro_Z_corte.nc)
N0001 (Post processor: Tecnopampa THC 2009.post)
N0002 (Date: 15/10/2018)
N0003 G21 (Units: Metric)
N0004G90 G40
N0005 F1
N0006 S500
N0007 (Part: Chapa1_carro_Z_corte)
N0008 (Process: Plasma,  0, Plasma - Aço Carbono 0,5 a 0,8mm - Bico Finecut 45A)
N0009 M06 T1  (Plasma - Aço Carbono 0,5 a 0,8mm - Bico Finecut 45A)
N0010 G00 Z0.0000
N0011 X50.2624 Y23.2000
N0012 M03
N0013 G02 X53.4624 Y20.0000 I0.0000 J-3.2000 F1800.0
N0014 X53.4624 Y20.0000 I-12.2500 J0.0000
N0015 X50.2624 Y16.8000 I-3.2000 J0.0000
N0016 M05
N0017 M09
N0018 G00 X50.2624 Y133.2000
N0019 M03
N0020 G02 X53.4624 Y130.0000 I0.0000 J-3.2000
N0021 X53.4624 Y130.0000 I-12.2500 J0.0000
N0022 X50.2624 Y126.8000 I-3.2000 J0.0000
N0023 M05
N0024 M09
N0025 G00 X65.5231 Y132.2066
N0026 M03
N0027 G02 X61.6971 Y134.6235 I-0.7045 J3.1215
N0028 G03 X41.2124 Y151.0000 I-20.4847 J-4.6235
N0029 G01 X0.0000 Y151.0000 F1801
N0030 G03 X-1.0000 Y150.0000 I0.0000 J-1.0000 F1800.0
N0031 G01 Y0.0000 F1801
N0032 G03 X0.0000 Y-1.0000 I1.0000 J0.0000 F1800.0
N0033 G01 X41.2124 Y-1.0000 F1801
N0034 G03 X61.6971 Y15.3765 I0.0000 J21.0000 F1800.0
N0035 G01 X69.6879 Y50.7798 F1801
N0036 G03 X69.7124 Y51.0000 I-0.9755 J0.2202 F1800.0
N0037 G01 Y66.0000 F1801
N0038 G03 X68.7124 Y67.0000 I-1.0000 J0.0000 F1800.0
N0039 G01 X60.7124 Y67.0000 F1801
N0040 G03 X59.9124 Y66.6000 I-0.0000 J-1.0000 F1800.0
N0041 G02 X59.9124 Y83.4000 I-11.2000 J8.4000
N0042 G03 X60.7124 Y83.0000 I0.8000 J0.6000
N0043 G01 X68.7124 Y83.0000 F1801
N0044 G03 X69.7124 Y84.0000 I-0.0000 J1.0000 F1800.0
N0045 G01 Y99.0000 F1801
N0046 G03 X69.6879 Y99.2202 I-1.0000 J0.0000 F1800.0
N0047 G01 X61.6971 Y134.6235 F1801
N0048 G02 X64.1140 Y138.4495 I3.1215 J0.7045 F1800.0
N0049 M05 M30
