N0000 (Filename: Chapa3_carro_Z_corte.nc)
N0001 (Post processor: Tecnopampa THC 2009.post)
N0002 (Date: 15/10/2018)
N0003 G21 (Units: Metric)
N0004G90 G40
N0005 F1
N0006 S500
N0007 (Part: Chapa3_carro_Z_corte)
N0008 (Process: Plasma,  0, Plasma - Aço Carbono 0,5 a 0,8mm - Bico Finecut 45A)
N0009 M06 T1  (Plasma - Aço Carbono 0,5 a 0,8mm - Bico Finecut 45A)
N0010 G00 Z0.0000
N0011 X166.6304 Y93.9937
N0012 M03
N0013 G02 X163.4261 Y90.7980 I-3.2000 J0.0043 F1800.0
N0014 G01 X12.7137 Y91.0000 F1801
N0015 G03 X12.6696 Y90.9991 I-0.0013 J-1.0000 F1800.0
N0016 G01 X7.9572 Y90.7970 F1801
N0017 G03 X7.8000 Y90.7778 I0.0428 J-0.9991 F1800.0
N0018 X-1.0000 Y80.0000 I2.2000 J-10.7778
N0019 G01 X-1.0000 Y10.0000 F1801
N0020 G03 X7.8000 Y-0.7778 I11.0000 J0.0000 F1800.0
N0021 X7.9987 Y-0.7980 I0.2000 J0.9798
N0022 G01 X158.7110 Y-1.0000 F1801
N0023 G03 X158.7552 Y-0.9991 I0.0013 J1.0000 F1800.0
N0024 G01 X163.4676 Y-0.7970 F1801
N0025 G03 X163.6248 Y-0.7778 I-0.0428 J0.9991 F1800.0
N0026 X172.4248 Y10.0000 I-2.2000 J10.7778
N0027 G01 X172.4248 Y80.0000 F1801
N0028 G03 X163.6248 Y90.7778 I-11.0000 J0.0000 F1800.0
N0029 X163.4261 Y90.7980 I-0.2000 J-0.9798
N0030 G02 X160.2304 Y94.0022 I0.0043 J3.2000
N0031 M05 M30
