N0000 (Filename: Mesa_[para corte].nc)
N0001 (Post processor: Tecnopampa THC 2009.post)
N0002 (Date: 03/10/2018)
N0003 G21 (Units: Metric)
N0004G90 G40
N0005 F1
N0006 S500
N0007 (Part: Mesa_[para corte])
N0008 (Process: Plasma,  0, Plasma - Aço Carbono 0,5 a 0,8mm - Bico Finecut 45A)
N0009 M06 T1  (Plasma - Aço Carbono 0,5 a 0,8mm - Bico Finecut 45A)
N0010 G00 Z0.0000
N0011 X54.3000 Y26.7000
N0012 M03
N0013 G02 X57.5000 Y23.5000 I0.0000 J-3.2000 F1800.0
N0014 X57.5000 Y23.5000 I-12.5000 J0.0000
N0015 X54.3000 Y20.3000 I-3.2000 J0.0000
N0016 M05
N0017 M09
N0018 G00 X25.0000 Y199.1869
N0019 M03
N0020 G02 X25.0000 Y203.7124 I2.2627 J2.2627
N0021 X29.0000 Y199.7124 I0.0000 J-4.0000
N0022 G01 Y67.7124 F1801
N0023 G02 X21.0000 Y67.7124 I-4.0000 J0.0000 F1800.0
N0024 G01 Y199.7124 F1801
N0025 G02 X25.0000 Y203.7124 I4.0000 J0.0000 F1800.0
N0026 X25.0000 Y199.1869 I-2.2627 J-2.2627
N0027 M05
N0028 M09
N0029 G00 X65.0000 Y199.1869
N0030 M03
N0031 G02 X65.0000 Y203.7124 I2.2627 J2.2627
N0032 X69.0000 Y199.7124 I0.0000 J-4.0000
N0033 G01 Y67.7124 F1801
N0034 G02 X61.0000 Y67.7124 I-4.0000 J0.0000 F1800.0
N0035 G01 Y199.7124 F1801
N0036 G02 X65.0000 Y203.7124 I4.0000 J0.0000 F1800.0
N0037 X65.0000 Y199.1869 I-2.2627 J-2.2627
N0038 M05
N0039 M09
N0040 G00 X105.0000 Y199.1869
N0041 M03
N0042 G02 X105.0000 Y203.7124 I2.2627 J2.2627
N0043 X109.0000 Y199.7124 I0.0000 J-4.0000
N0044 G01 X109.0000 Y67.7124 F1801
N0045 G02 X101.0000 Y67.7124 I-4.0000 J0.0000 F1800.0
N0046 G01 X101.0000 Y199.7124 F1801
N0047 G02 X105.0000 Y203.7124 I4.0000 J0.0000 F1800.0
N0048 X105.0000 Y199.1869 I-2.2627 J-2.2627
N0049 M05
N0050 M09
N0051 G00 X144.4745 Y199.7124
N0052 M03
N0053 G02 X149.0000 Y199.7124 I2.2627 J-2.2627
N0054 G01 Y67.7124 F1801
N0055 G02 X141.0000 Y67.7124 I-4.0000 J0.0000 F1800.0
N0056 G01 Y199.7124 F1801
N0057 G02 X149.0000 Y199.7124 I4.0000 J0.0000 F1800.0
N0058 X145.8000 Y196.5124 I-3.2000 J0.0000
N0059 M05
N0060 M09
N0061 G00 X175.8000 Y26.7000
N0062 M03
N0063 G02 X179.0000 Y23.5000 I0.0000 J-3.2000
N0064 X179.0000 Y23.5000 I-14.0000 J0.0000
N0065 X175.8000 Y20.3000 I-3.2000 J0.0000
N0066 M05
N0067 M09
N0068 G00 X184.4745 Y199.7124
N0069 M03
N0070 G02 X189.0000 Y199.7124 I2.2627 J-2.2627
N0071 G01 Y67.7124 F1801
N0072 G02 X181.0000 Y67.7124 I-4.0000 J0.0000 F1800.0
N0073 G01 Y199.7124 F1801
N0074 G02 X189.0000 Y199.7124 I4.0000 J0.0000 F1800.0
N0075 X185.8000 Y196.5124 I-3.2000 J0.0000
N0076 M05
N0077 M09
N0078 G00 X225.0000 Y199.1869
N0079 M03
N0080 G02 X225.0000 Y203.7124 I2.2627 J2.2627
N0081 X229.0000 Y199.7124 I0.0000 J-4.0000
N0082 G01 Y67.7124 F1801
N0083 G02 X221.0000 Y67.7124 I-4.0000 J0.0000 F1800.0
N0084 G01 Y199.7124 F1801
N0085 G02 X225.0000 Y203.7124 I4.0000 J0.0000 F1800.0
N0086 X225.0000 Y199.1869 I-2.2627 J-2.2627
N0087 M05
N0088 M09
N0089 G00 X265.0000
N0090 M03
N0091 G02 X265.0000 Y203.7124 I2.2627 J2.2627
N0092 X269.0000 Y199.7124 I0.0000 J-4.0000
N0093 G01 Y67.7124 F1801
N0094 G02 X261.0000 Y67.7124 I-4.0000 J0.0000 F1800.0
N0095 G01 Y199.7124 F1801
N0096 G02 X265.0000 Y203.7124 I4.0000 J0.0000 F1800.0
N0097 X265.0000 Y199.1869 I-2.2627 J-2.2627
N0098 M05
N0099 M09
N0100 G00 X294.3000 Y26.7000
N0101 M03
N0102 G02 X297.5000 Y23.5000 I0.0000 J-3.2000
N0103 X297.5000 Y23.5000 I-12.5000 J0.0000
N0104 X294.3000 Y20.3000 I-3.2000 J0.0000
N0105 M05
N0106 M09
N0107 G00 X305.0000 Y199.1869
N0108 M03
N0109 G02 X305.0000 Y203.7124 I2.2627 J2.2627
N0110 X309.0000 Y199.7124 I0.0000 J-4.0000
N0111 G01 X309.0000 Y67.7124 F1801
N0112 G02 X301.0000 Y67.7124 I-4.0000 J0.0000 F1800.0
N0113 G01 X301.0000 Y199.7124 F1801
N0114 G02 X305.0000 Y203.7124 I4.0000 J0.0000 F1800.0
N0115 X305.0000 Y199.1869 I-2.2627 J-2.2627
N0116 M05
N0117 M09
N0118 G00 X294.3000 Y247.1248
N0119 M03
N0120 G02 X297.5000 Y243.9248 I0.0000 J-3.2000
N0121 X297.5000 Y243.9248 I-12.5000 J0.0000
N0122 X294.3000 Y240.7248 I-3.2000 J0.0000
N0123 M05
N0124 M09
N0125 G00 X175.8000 Y247.1248
N0126 M03
N0127 G02 X179.0000 Y243.9248 I0.0000 J-3.2000
N0128 X179.0000 Y243.9248 I-14.0000 J0.0000
N0129 X175.8000 Y240.7248 I-3.2000 J0.0000
N0130 M05
N0131 M09
N0132 G00 X54.3000 Y247.1248
N0133 M03
N0134 G02 X57.5000 Y243.9248 I0.0000 J-3.2000
N0135 X57.5000 Y243.9248 I-12.5000 J0.0000
N0136 X54.3000 Y240.7248 I-3.2000 J0.0000
N0137 M05
N0138 M09
N0139 G00 X-4.2000 Y33.2000
N0140 M03
N0141 G02 X-1.0000 Y30.0000 I0.0000 J-3.2000
N0142 G03 X30.0000 Y-1.0000 I31.0000 J0.0000
N0143 G01 X300.0000 Y-1.0000 F1801
N0144 G03 X331.0000 Y30.0000 I0.0000 J31.0000 F1800.0
N0145 G01 Y237.4248 F1801
N0146 G03 X300.0000 Y268.4248 I-31.0000 J0.0000 F1800.0
N0147 G01 X30.0000 F1801
N0148 G03 X-1.0000 Y237.4248 I0.0000 J-31.0000 F1800.0
N0149 G01 Y30.0000 F1801
N0150 G02 X-4.2000 Y26.8000 I-3.2000 J0.0000 F1800.0
N0151 M05 M30
