N0000 (Filename: Suporte_motor[Corrigido].nc)
N0001 (Post processor: Tecnopampa THC 2009.post)
N0002 (Date: 19/10/2018)
N0003 G21 (Units: Metric)
N0004G90 G40
N0005 F1
N0006 S500
N0007 (Part: Suporte_motor[Corrigido])
N0008 (Process: Plasma,  0, Plasma - Aço Carbono 0,5 a 0,8mm - Bico Finecut 45A)
N0009 M06 T1  (Plasma - Aço Carbono 0,5 a 0,8mm - Bico Finecut 45A)
N0010 G00 Z0.0000
N0011 X90.7248 Y31.7000
N0012 M03
N0013 G02 X93.9248 Y28.5000 I0.0000 J-3.2000 F1800.0
N0014 X93.9248 Y28.5000 I-19.0000 J0.0000
N0015 X90.7248 Y25.3000 I-3.2000 J0.0000
N0016 M05
N0017 M09
N0018 G00 X-4.2000 Y60.2000
N0019 M03
N0020 G02 X-1.0000 Y57.0000 I0.0000 J-3.2000
N0021 G01 Y0.0000 F1801
N0022 G03 X0.0000 Y-1.0000 I1.0000 J0.0000 F1800.0
N0023 G01 X149.8496 F1801
N0024 G03 X150.8496 Y0.0000 I0.0000 J1.0000 F1800.0
N0025 G01 Y57.0000 F1801
N0026 G03 X149.8496 Y58.0000 I-1.0000 J0.0000 F1800.0
N0027 G01 X0.0000 F1801
N0028 G03 X-1.0000 Y57.0000 I0.0000 J-1.0000 F1800.0
N0029 G02 X-4.2000 Y53.8000 I-3.2000 J0.0000
N0030 M05 M30
