N0000 (Filename: Base_motor_corte.nc)
N0001 (Post processor: Tecnopampa THC 2009.post)
N0002 (Date: 09/10/2018)
N0003 G21 (Units: Metric)
N0004G90 G40
N0005 F1
N0006 S500
N0007 (Part: Base_motor_corte)
N0008 (Process: Plasma,  0, Plasma - Aço Carbono 0,5 a 0,8mm - Bico Finecut 45A)
N0009 M06 T1  (Plasma - Aço Carbono 0,5 a 0,8mm - Bico Finecut 45A)
N0010 G00 Z0.0000
N0011 X40.9124 Y77.2000
N0012 M03
N0013 G02 X37.7124 Y74.0000 I-3.2000 J0.0000 F1800.0
N0014 X28.7124 Y83.0000 I0.0000 J9.0000
N0015 G01 X28.7124 Y103.0000 F1801
N0016 G02 X46.7124 Y103.0000 I9.0000 J0.0000 F1800.0
N0017 G01 X46.7124 Y83.0000 F1801
N0018 G02 X37.7124 Y74.0000 I-9.0000 J0.0000 F1800.0
N0019 X34.5124 Y77.2000 I0.0000 J3.2000
N0020 M05
N0021 M09
N0022 G00 X97.5124 Y58.7000
N0023 M03
N0024 G02 X100.7124 Y55.5000 I0.0000 J-3.2000
N0025 X100.7124 Y55.5000 I-15.0000 J0.0000
N0026 X97.5124 Y52.3000 I-3.2000 J0.0000
N0027 M05
N0028 M09
N0029 G00 X136.9124 Y77.2000
N0030 M03
N0031 G02 X133.7124 Y74.0000 I-3.2000 J0.0000
N0032 X124.7124 Y83.0000 I0.0000 J9.0000
N0033 G01 Y103.0000 F1801
N0034 G02 X142.7124 Y103.0000 I9.0000 J0.0000 F1800.0
N0035 G01 Y83.0000 F1801
N0036 G02 X133.7124 Y74.0000 I-9.0000 J0.0000 F1800.0
N0037 X130.5124 Y77.2000 I0.0000 J3.2000
N0038 M05
N0039 M09
N0040 G00 X166.2248 Y-4.2000
N0041 M03
N0042 G02 X169.4248 Y-1.0000 I3.2000 J0.0000
N0043 G03 X172.4248 Y2.0000 I0.0000 J3.0000
N0044 G01 Y121.0000 F1801
N0045 G03 X169.4248 Y124.0000 I-3.0000 J0.0000 F1800.0
N0046 G01 X2.0000 Y124.0000 F1801
N0047 G03 X-1.0000 Y121.0000 I0.0000 J-3.0000 F1800.0
N0048 G01 X-1.0000 Y2.0000 F1801
N0049 G03 X2.0000 Y-1.0000 I3.0000 J0.0000 F1800.0
N0050 G01 X169.4248 F1801
N0051 G02 X172.6248 Y-4.2000 I0.0000 J-3.2000 F1800.0
N0052 M05 M30
